actions/22x22-light/edit-clone.svg

<svg viewBox="0 0 22 22" xmlns="http://www.w3.org/2000/svg"><path d="m8 3c-.552 0-1 .448-1 1v1h1v-.5c0-.276.224-.5.5-.5h9c .276 0 .5.224.5.5v9c0 .276-.224.5-.5.5h-.5v1h1c .552 0 1-.448 1-1v-10c0-.552-.448-1-1-1zm-4 3c-.552 0-1 .448-1 1v11c0 .552.448 1 1 1h11c .552 0 1-.448 1-1v-11c0-.552-.448-1-1-1zm5.34375 2.57227c1.34781 0 2.44336 1.09557 2.44336 2.44336v.99414c.19263.0404.33789.21156.33789.41601v3.7207c0 .23442-.19134.42579-.42578.42579h-4.71289c-.23444 0-.42578-.19137-.42578-.42579v-3.7207c0-.20445.14526-.37576.33789-.41601v-.99414c0-1.34779 1.0975-2.44336 2.44531-2.44336zm0 .84961c-.87893 0-1.59375.71483-1.59375 1.59375v.98437h3.1875v-.98437c0-.87887-.71483-1.59375-1.59375-1.59375z" fill="#4d4d4d"/></svg>

<svg xmlns="http://www.w3.org/2000/svg" viewBox="0 0 22 22">
  <defs id="defs3051">
    <style type="text/css" id="current-color-scheme">
      .ColorScheme-Text {
        color:#4d4d4d
      }
      </style>
  </defs>
    <path
       style="fill:currentColor;fill-opacity:1;stroke:none"
       class="ColorScheme-Text"
       d="M 8,3 C 7.448,3 7,3.448 7,4 L 7,5 8,5 8,4.5 C 8,4.224 8.224,4 8.5,4 l 9,0 C 17.776,4 18,4.224 18,4.5 l 0,9 c 0,0.276 -0.224,0.5 -0.5,0.5 l -0.5,0 0,1 1,0 c 0.552,0 1,-0.448 1,-1 L 19,4 C 19,3.448 18.552,3 18,3 L 8,3 Z M 4,6 C 3.448,6 3,6.448 3,7 l 0,11 c 0,0.552 0.448,1 1,1 l 11,0 c 0.552,0 1,-0.448 1,-1 L 16,7 C 16,6.448 15.552,6 15,6 L 4,6 Z m 5.34375,2.57227 c 1.34781,0 2.44336,1.09557 2.44336,2.44336 l 0,0.99414 c 0.19263,0.0404 0.33789,0.21156 0.33789,0.41601 l 0,3.7207 c 0,0.23442 -0.19134,0.42579 -0.42578,0.42579 l -4.71289,0 c -0.23444,0 -0.42578,-0.19137 -0.42578,-0.42579 l 0,-3.7207 c 0,-0.20445 0.14526,-0.37576 0.33789,-0.41601 l 0,-0.99414 c 0,-1.34779 1.0975,-2.44336 2.44531,-2.44336 z m 0,0.84961 C 8.46482,9.42188 7.75,10.13671 7.75,11.01563 l 0,0.98437 3.1875,0 0,-0.98437 c 0,-0.87887 -0.71483,-1.59375 -1.59375,-1.59375 z"
        />
</svg>
